!!!COM: Lasso
!!!OTL: Oculus non vidit
!!!OMV: Partie 1
**kern	**text	**kern	**text
*part2	*part2	*part1	*part1
*staff2	*staff2	*staff1	*staff1
*I"Altus	*	*I"Cantus	*
*clefG2	*	*clefG2	*
*k[]	*	*k[]	*
*C:	*	*C:	*
*M2/1	*	*M2/1	*
=1	=1	=1	=1
0r	.	1.ee	O-
.	.	2dd	-cu-
=2	=2	=2	=2
1r	.	2cc	-lus
.	.	2a	non
1a.	O-	2.cc	vi-
.	.	4dd	.
=3	=3	=3	=3
.	.	1ee	.
2g	-cu-	.	.
2f	-lus	1a	-dit,
2d	non	.	.
=4	=4	=4	=4
2.f	vi-	2r	.
.	.	4a	nec
4g	.	4b	.
1a	.	4cc	.
.	.	4dd	.
.	.	4ee	.
.	.	4cc	.
=5	=5	=5	=5
1d	-dit,	2ff	.
.	.	4dd	au-
.	.	4ee	.
2r	.	4ff	.
.	.	4dd	.
4A	nec	2ff	.
4B	.	.	.
=6	=6	=6	=6
4c	.	1ee	-ris
4d	.	.	.
4e	.	.	.
4c	.	.	.
2f	.	1a	au-
4d	au-	.	.
4e	.	.	.
=7	=7	=7	=7
4f	.	2.a	-di-
4d	.	.	.
2f	.	.	.
.	.	4b	.
2e	-ris	4cc	.
.	.	4b	.
4A	au-	4cc	.
4B	.	4dd	.
=8	=8	=8	=8
4c	.	0ee	.
4d	.	.	.
4e	.	.	.
4f	.	.	.
2g	.	.	.
2a.	-di-	.	.
=9	=9	=9	=9
.	.	1ee	-vit,
8gL	.	.	.
8fJ	.	.	.
2g	.	.	.
1a	-vit,	2r	.
.	.	2cc	nec
=10	=10	=10	=10
2r	.	1ff	in
2d	nec	.	.
1g	in	2dd	cor
.	.	1gg	ho-
=11	=11	=11	=11
2e	cor	.	.
1a	ho-	2ff	-mi-
.	.	1ee	-nis
2g	-mi-	.	.
=12	=12	=12	=12
2f	-nis	1a	a-
1d	a-	.	.
.	.	1b	.
1e	.	.	.
=13	=13	=13	=13
.	.	2.cc	-scen-
2f.	-scen-	.	.
.	.	4a	.
.	.	2.dd	.
4d	.	.	.
2g.	.	.	.
.	.	4b	.
=14	=14	=14	=14
.	.	2.ee	.
4e	.	.	.
2a.	.	.	.
.	.	4cc	.
.	.	4ff	.
4g	.	4ee	.
4g	.	2ee.	.
8fL	.	.	.
8eJ	.	.	.
=15	=15	=15	=15
1f	.	.	.
.	.	8ddL	.
.	.	8ccJ	.
.	.	2dd	.
1e	-dit,	0ee	-dit,
=16	=16	=16	=16
2r	.	.	.
2cc	quae	.	.
4cc	prae-	2r	.
4b	.	.	.
4a	.	2cc	quae
4g	.	.	.
=17	=17	=17	=17
2f	.	4cc	prae-
.	.	4dd	.
2c.	-pa-	4ee	.
.	.	4ff	.
.	.	2gg	.
4d	.	.	.
2e	.	2cc.	-pa-
=18	=18	=18	=18
1f	-ra-	.	.
.	.	4b	.
.	.	2a	.
2e	-vit	1g	-ra-
2c.	De-	.	.
=19	=19	=19	=19
.	.	1a	-vit
4A	.	.	.
2f.	.	.	.
.	.	1cc	De-
4e	.	.	.
2a.	.	.	.
=20	=20	=20	=20
.	.	1b	-us
8gL	.	.	.
8fJ	.	.	.
2g	.	.	.
1a	-us	1r	.
=21	=21	=21	=21
1r	.	1ee	his,
1e	his,	2r	.
.	.	2gg	qui
=22	=22	=22	=22
2r	.	2.dd	di-
2g	qui	.	.
.	.	4ee	.
2.d	di-	2ff	.
.	.	2dd	-li-
4e	.	.	.
=23	=23	=23	=23
2f	.	2.a	-gunt
2d	-li-	.	.
.	.	4b	.
4A	-gunt	4cc	.
4B	.	4dd	.
4c	.	2ee	.
4d	.	.	.
=24	=24	=24	=24
2e	.	2.cc	il-
2f.	il-	.	.
.	.	4a	.
.	.	1ff	.
4d	.	.	.
2a.	.	.	.
=25	=25	=25	=25
.	.	2.ee	lum,
4g	.	.	.
2a	.	.	.
.	.	4ff	.
2e	-lum,	1gg	.
2cc	qui	.	.
=26	=26	=26	=26
2.g	di-	2r	.
.	.	2gg	qui
4a	.	.	.
2b-X	.	2.dd	di-
2g	-li-	.	.
.	.	4ee	.
=27	=27	=27	=27
2.d	-gunt	2ff	.
.	.	2dd	-li-
4e	.	.	.
4f	.	4a	gunt
4g	.	4b	.
2a.	.	4cc	.
.	.	4dd	.
=28	=28	=28	=28
.	.	2ee	.
4g	.	.	.
4f	.	2a.	il-
4e	.	.	.
2d	.	.	.
.	.	4b	.
2a.	il-	4cc	.
.	.	4dd	.
=29	=29	=29	=29
.	.	2.ee	.
4g	.	.	.
4a	.	.	.
4b	.	4dd	.
2.a	.	4cc	.
.	.	4dd	.
.	.	4ee	.
8gL	.	4ff	.
8fJ	.	.	.
=30	=30	=30	=30
4g	.	4ee	.
4f	.	4a	.
4f	.	2dd.	.
8eL	.	.	.
8dJ	.	.	.
1e	.	.	.
.	.	8ccL	.
.	.	8bJ	.
.	.	2cc	.
=31	=31	=31	=31
0d	-lum.	0dd	-lum.
==	==	==	==
*-	*-	*-	*-
!!!system-decoration: s1,s2